X: 14065
T: NANA DEANNA
C: Bob McQuillen 22 July'08
B: Bob's Note Book 14 #65
%R: jig
%D:2008
Z: 2020 John Chambers <jc:trillian.mit.edu>
M: 6/8
L: 1/8
K: D
B \
| AFD FAd | e2d B2d | cde edc | B3  AdB |\
| AFD FAd | e2g B2d | cBA gfe | d3- d2 :|
|: f \
| afd def | g2d B2d | cec ABc ||1 d2B AFE ||2 d2b a3 ||\
| DFA d2A | BGB e2g | fdB Adc | d3- d2 :|
%%begintext align
%% Well, it turns out that Deanna Stiles'
%% daughter, Amelia (you may have met her),
%% has presented her with two adorable
%% grand-kids so far, and that's why this tune
%% has emerged from the crypt.
%%endtext

%%sep 1 1 500

%%sep 1 1 500

